X: 73
M: C
L: 1/8
K: G
d4 cBAB | G4 c2B2 | A2GF G2A2 | B2G2 B2c2 |\
d4 cBAB | G4 c2B2 | A2G2 BAGF | G4 :|
|: g2f2 |\
e2^d2 e2f2 | B4 e2^d2 | e2f2 g2ag | f2e2 g2f2 |\
e2^d2 e2f2 | B4 e2^d2 | e2f2 g2ag | f2e2 g2d2 | B2G2 g2d2 |


